suite-common/icons/assets/icons/show.svg

<svg xmlns="http://www.w3.org/2000/svg" viewBox="0 0 16 16">
  <path fill-rule="evenodd" d="M7.307 3.414c-1.458.084-2.873.641-4.095 1.612-.623.494-1.995 2.003-2.213 2.432-.123.243-.144.671-.048.976.049.155.243.421.668.915 1.145 1.334 1.865 1.949 2.903 2.479a7.1 7.1 0 0 0 2.571.747c.511.054 1.606.04 2.08-.027 1.496-.21 2.891-.871 3.95-1.872.822-.777 1.719-1.813 1.901-2.196.078-.163.083-.192.083-.481 0-.302-.002-.313-.099-.507-.214-.434-1.31-1.679-1.996-2.269-1.633-1.404-3.341-1.945-5.705-1.809M9.2 4.742c1.536.288 2.696.998 3.906 2.391.359.414.707.841.707.867 0 .024-.487.618-.788.961-1.368 1.561-2.825 2.303-4.692 2.389a8 8 0 0 1-1.52-.1c-1.325-.236-2.505-.887-3.489-1.926-.458-.483-1.137-1.272-1.137-1.32 0-.027.21-.288.582-.724C4.118 5.7 5.38 4.956 7.133 4.707c.404-.058 1.689-.036 2.067.035M7.56 6.054c-.568.113-1.102.537-1.358 1.077-.144.303-.182.488-.183.882-.001.309.007.37.072.56.231.677.71 1.147 1.376 1.35.286.087.781.087 1.065 0a2.15 2.15 0 0 0 1.188-.909c.183-.293.3-.783.272-1.142-.017-.217-.128-.644-.194-.745-.076-.117-.074-.118-1.061.451-.38.218-.697.391-.705.383s.071-.342.176-.741c.291-1.104.29-1.096.165-1.159-.075-.038-.636-.043-.813-.007"/>
</svg>

<svg xmlns="http://www.w3.org/2000/svg" viewBox="0 0 16 16"><path d="M7.307 3.414 C 5.849 3.498,4.434 4.055,3.212 5.026 C 2.589 5.520,1.217 7.029,0.999 7.458 C 0.876 7.701,0.855 8.129,0.951 8.434 C 1.000 8.589,1.194 8.855,1.619 9.349 C 2.764 10.683,3.484 11.298,4.522 11.828 C 5.327 12.239,6.135 12.474,7.093 12.575 C 7.604 12.629,8.699 12.615,9.173 12.548 C 10.669 12.338,12.064 11.677,13.123 10.676 C 13.945 9.899,14.842 8.863,15.024 8.480 C 15.102 8.317,15.107 8.288,15.107 7.999 C 15.107 7.697,15.105 7.686,15.008 7.492 C 14.794 7.058,13.698 5.813,13.012 5.223 C 11.379 3.819,9.671 3.278,7.307 3.414 M9.200 4.742 C 10.736 5.030,11.896 5.740,13.106 7.133 C 13.465 7.547,13.813 7.974,13.813 8.000 C 13.813 8.024,13.326 8.618,13.025 8.961 C 11.657 10.522,10.200 11.264,8.333 11.350 C 7.901 11.370,7.245 11.327,6.813 11.250 C 5.488 11.014,4.308 10.363,3.324 9.324 C 2.866 8.841,2.187 8.052,2.187 8.004 C 2.187 7.977,2.397 7.716,2.769 7.280 C 4.118 5.700,5.380 4.956,7.133 4.707 C 7.537 4.649,8.822 4.671,9.200 4.742 M7.560 6.054 C 6.992 6.167,6.458 6.591,6.202 7.131 C 6.058 7.434,6.020 7.619,6.019 8.013 C 6.018 8.322,6.026 8.383,6.091 8.573 C 6.322 9.250,6.801 9.720,7.467 9.923 C 7.753 10.010,8.248 10.010,8.532 9.923 C 9.024 9.772,9.451 9.445,9.720 9.014 C 9.903 8.721,10.020 8.231,9.992 7.872 C 9.975 7.655,9.864 7.228,9.798 7.127 C 9.722 7.010,9.724 7.009,8.737 7.578 C 8.357 7.796,8.040 7.969,8.032 7.961 C 8.024 7.953,8.103 7.619,8.208 7.220 C 8.499 6.116,8.498 6.124,8.373 6.061 C 8.298 6.023,7.737 6.018,7.560 6.054 " stroke="none" fill-rule="evenodd" fill="black"></path></svg>
